X:54
T:Do
R:jig
C:Bruce Osborne - Apr. 2005
Z:abc by bosborne@kos.net
M:6/8
L:1/8
K:Gmaj
Bc|d^cd BAB|GFG DED|G,B,D GDG|F3 A2 B|\
cBc ABA|FAF FED|d^cd ed=c|B4 Bc|\
d^cd BAB|GFG DED|G,B,D GF=F|E3 E2 F|\
GFG AGA|BAB D2 D|EDE FED|G4||\
Bc|dBB gBB|aBB gBB|Bcd dBG|F3 A2 B|\
cBc ABA|FAF FED|d^cd ed=c|B3 B2 c|\
dBB gBB|aBB gBB|Bcd gf=f|e3 e2 f|\
gfg age|d^cd fed|ded cBA|G4||
